X:1
T:Hark! the Herald Angels Sing
T:Hark! the Herald Angels Sing
T:Sax lead sheet 
C:arr. Pentatonix
%%score ( 1 2 )
L:1/8
M:4/4
K:Bb
V:1 treble nm="Soprano" snm="S"
V:2 treble 
V:1
"Cm7/F""^Piano slow intro" cdef-"Bbmaj7/F" fBcd- |"Ebmaj7/F" dABc-"Cm7/F" cAGF- | %2
"Bbmaj7/F" FGAB-"Ebmaj7/F" BEFG- |"Cm7/F" GCDE-"Ebm/F" E4 || %4
[K:G]"Am7/D""^Slow sax (with solo piano accompaniment)""^Change Instr." D2 G2"Dsus4" G2-"D7" GF | %5
"G6" G2"G6/D" B2"A/C#" B2"C6" A2 |"Bm7" d2"Bb7" d2"Am7" d2-"Am7b5" d"C"c | %7
"Cmaj7" B2"D7b9" A2"Gmaj7" B4 |"Am7" D2 G2"Dsus4" G2-"D7" GF | %9
"Em" G2-"C#m7b5" (3GAB"Em7/F#" d2"F#7b9" ^c2 |"Bm7" d2 A2"Em7" A2- AG |"A7b9" F2 E2"D7" A4 | %12
"Gmaj7/D""^Bass joins piano and sax" d2 d2 d2 G2 |"Am7/D" c2 B2"D7b9" B2 A2 | %14
"Gmaj7/D" d2 d2 d2 G2 |"Dm7" e2- (3edc"G7" B2 A2 |"Cmaj7""C7" e3 e"Bm7b5" e2 d2 | %17
"E7b9" c2 B2"Am7" c4 |"D" A2"D/C" Bc"Bm7" d2-"Em7" dG |"Am7" G2"D7b9" A2"Gmaj7" B2-"G7" B2 | %20
"Cmaj7""C7" e3 e"Bm7b5" e2 (3A2 B/A/ |"E7b9" ^G2 d2"Am7" c4 |"D7" A2 z c"Gmaj7/D" d3 G | %23
"C/D" G2"D7b9" z6"G9" || %24
"Am7/D""^Medium swing\nSax intro: start drums here\n" ABcd-"Gmaj7/D" dGAB- | %25
"Cmaj7/D" BFGA-"Am7/D" AFED- |"Gmaj7/D" DEFG-"Cmaj7/D" GCDE- |"Am7/D" EFGA-"Cm/D" A4 |: %28
"Am7/D""C""^Sax""^Main section: tune + impro" D2 G2"Dsus4" G2-"D7" GF |"G6" G2 B2"D7b9" B2 A2 | %30
"Bm7" d2 d2"E7b9" d2- d"C"c |"Am7" B2"D7b9" A2"Gmaj7" B4 |"Am7" D2 G2"Dsus4" G2-"D7" GF | %33
"G6" G2 B2"D7b7" B2 A2 |"Bm7" d2 A2"Em7" A2- AG |"A7b9" F2 E2"D7" D4 |"Gmaj7/D" d2 d2 d2 G2 | %37
"Am7/D" c2 B2"D7b9" z2 A2 |"Gmaj7/D" d2 d2 d2 G2 |"Dm7" c2 B2"G7" B2 A2 | %40
"Cmaj7" e"C7" e2 e-"Bm7b5" e2 d2 |"E7b9" c2 B2"Am7" c4 |"D" ABcd-"Bm7" d2-"Em7" dG | %43
"Am7" G2"Dm7" A2"G7" B4 |"Cmaj7" e"C7" e2 e-"Bm6" e2 d2 |"E7b9" c2 B2"Am7" c4 | %46
"Am7b5" A2 Bc"Gmaj7/D" d2- dG |"C/D" G2"D7b9" A2"G6" G4 |1"Am7/D" ABcd-"Gmaj7/D" dGAB- || %49
"Cmaj7/D" BFGA-"Am7/D" AFED- |"Gmaj7/D" DEFG-"Cmaj7/D" GCDE- | %51
"Am7/D" EFGA-"Cm/D""^Repeat for solos" A4 :| %52
"Am7/D""C""^Sax intro to piano coda: slow down" ABcd-"Gmaj7/D" dGAB- |"Cmaj7/D" BFGA- AEFD- | %54
"Gmaj7/D" DEFG-"Cmaj7" GCDE- |"F#m7b5" EFGA-"Am7/B""^Repeat for solos" A2-"B7b9" A2 | %56
[K:G]"Am7/D""^Piano coda: slow ballad""^Change Instr." D2 G2"Dsus4" G2-"D7" GF | %57
"G6" G2"G6/D" B2"A/Db" B2"C6" A2 |"Bm7" d2"Bb7" d2"Am7" d2-"Am7b5" d"C"c | %59
"Cmaj7" B2"D7b9" A2"Gmaj7" B4 |"Am7" D2 G2"Dsus4" G2-"D7" GF | %61
"Em" G2-"Dbm7b5" (3GAB"Em7/F#" d2"F#7b9" ^c2 |"Bm7" d2 A2"Em7" A2- AG |"A7b9" F2 E2"D7" A4 | %64
"Gmaj7/D" d2 d2 d2"G6/D" G2 |"Cm6/D" c2 B2"D7b9" B2 A2 |"Gmaj7/D" d2 d2 d2 G2 | %67
"Dm7" e2- (3edc"G7" B2 A2 |"Cmaj7""C7" e3 e"Bm7b5" e2 d2 |"E7b9" c2 B2"Am7" c4 | %70
"D" A2"D/C" Bc"Bm7" d2-"Em7" dG |"Am7" G2"D7b9" A2"Gmaj7" B2-"G7" B2 | %72
"Cmaj7""C7" e3 e"Bm7b5" e2 (3A2 B/A/ |"E7b9" ^G2 d2"Am7" c4 | %74
"D7""^Piano intro" A2 Bc"Gmaj7/D" d3 G |"C/D" abc'd'- d'gab- |"D7b9" bfga-"Am7/D" afed- | %77
"Cmaj7" defg- gcde- |"Am7/D" eABc-"Cm6/D" cGAB- | B8 |] %80
V:2
 x8 | x8 | x8 | x8 ||[K:G] x8 | x8 | x8 | x8 | x8 | x8 | x8 | x8 | x8 | x8 | x8 | x8 | x8 | x8 | %18
 x8 | x8 | x8 | x8 | x8 | x8 || x8 | x8 | x8 | x8 |: x8 | x8 | x8 | x8 | x8 | x8 | x8 | x8 | x8 | %37
 x8 | x8 | x8 | x8 | x8 | x8 | x8 | x8 | x8 | x8 | x8 |1 x8 || x8 | x8 | x8 :| x8 | x8 | x8 | x8 | %56
[K:G] x8 | x8 | x8 | x8 | x8 | x8 | x8 | x8 | x8 | x8 | x8 | x8 | x8 | x8 | x8 | x8 | x8 | x8 | %74
 x8 | G8 | A8 | G8 | x8 | x8 |] %80

